X:6431
T:Tarbolton Lodge
O:england
M:4/4
L:1/8
Q:212
K:E
Eee^d e2BA|GBAF GEEF|Ddd^c d2AF|GBAG FDDF|Eee^d efge|fedf B2BA|GABG FGAF
|BGAF GEEF|
W: Em Em B Em D A D D7 Em Bm Em Em D B7 Em
Eee^d e2BA|GBAF GEEF|Ddd^c d2AF|GBAG FDDF|Eee^d efge|fedf B2BA|GABG FGAF
|BGAF GEEf|
W: Em Em B Em D A D D7 Em Bm Em Em D B7 Em
gfef gebe|gebe geef|defg adfd|ABAG FDDF|G2BG F2AF|E2ef geBA|GABG FGAF|BG
AF GEEf|
W: Em Em Em D A D D7 Em B Am Em Em Dm B Em
gfef gebe|gebe geef|defg adfd|ABAG FDDF|G2BG F2AF|E2ef geBA|GABG FGAF|BG
AF GEE
W: Em Em D A D D7 Em B Am Em Em Dm B Em
